X: 486
T:Sailing into Walpole's Marsh
M:4/4
L:1/8
R:Reel
Z:Andrew Pickering
N:Posted to the woodenflute mailing list January 2002
K:Ador
A2 AG AcBA|G2 GE GEDG|A2 AG ABcd|eged cAdc|
AG G2 AG G2|GEDE GDEG|A2 AG ABcd|1 eged cA dc:|
2 eged cA A2|
|eg g2 eaaf|gedB cA A2|eg g2 eaag|age^c d2 ef|
g2 ge a2 af|gedB cA A2|c2 gc acgc|eage d4:|
<end>
<start>
